;FLAVOR:Marlin
;TIME:1775
;Filament used: 0.815159m
;Layer height: 0.2
;MINX:94
;MINY:94
;MINZ:0.2
;MAXX:141
;MAXY:141
;MAXZ:24.8
CURALAYERCUT
;POSTPROCESSED
;Generated with Cura_SteamEngine 4.6.1
M140 S60
M105
M190 S60
M104 S200
M105
M109 S200
M82 ;absolute extrusion mode
; Ender 3 Custom Start G-code
G92 E0 ; Reset Extruder
G28 ; Home all axes
G1 Z2.0 F3000 ; Move Z Axis up little to prevent scratching of Heat Bed
G1 X0.1 Y20 Z0.3 F5000.0 ; Move to start position
G1 X0.1 Y200.0 Z0.3 F1500.0 E15 ; Draw the first line
G1 X0.4 Y200.0 Z0.3 F5000.0 ; Move to side a little
G1 X0.4 Y20 Z0.3 F1500.0 E30 ; Draw the second line
G92 E0 ; Reset Extruder
G1 Z2.0 F3000 ; Move Z Axis up little to prevent scratching of Heat Bed
G1 X5 Y20 Z0.3 F5000.0 ; Move over to prevent blob squish
G92 E0
G92 E0
G1 F1500 E-6.5
;LAYER_COUNT:124
CURALAYERCUT
;LAYER:0
M107
G0 F6000 X130.137 Y94.811 Z0.2
;TYPE:SKIRT
G1 F1500 E0
G1 F1200 X131.039 Y94.864 E0.03005
G1 X131.932 Y94.996 E0.06008
G1 X132.81 Y95.207 E0.09011
G1 X133.666 Y95.495 E0.12015
G1 X134.493 Y95.857 E0.15018
G1 X135.285 Y96.292 E0.18023
G1 X136.036 Y96.794 E0.21027
G1 X136.739 Y97.361 E0.24031
G1 X137.389 Y97.988 E0.27035
G1 X137.981 Y98.67 E0.30039
G1 X138.511 Y99.401 E0.33042
G1 X138.973 Y100.177 E0.36046
G1 X139.366 Y100.99 E0.39049
G1 X139.684 Y101.835 E0.42052
G1 X139.927 Y102.705 E0.45056
G1 X140.092 Y103.593 E0.4806
G1 X140.187 Y104.723 E0.51832
G1 X140.2 Y105.33 E0.53851
G1 X140.199 Y129.39 E1.33875
G1 X140.19 Y130.117 E1.36294
G1 X140.139 Y131.019 E1.39298
G1 X140.008 Y131.913 E1.42304
G1 X139.799 Y132.791 E1.45305
G1 X139.513 Y133.648 E1.4831
G1 X139.152 Y134.476 E1.51315
G1 X138.72 Y135.268 E1.54315
G1 X138.219 Y136.02 E1.57321
G1 X137.653 Y136.724 E1.60325
G1 X137.028 Y137.375 E1.63327
G1 X136.347 Y137.969 E1.66332
G1 X135.616 Y138.5 E1.69337
G1 X134.842 Y138.964 E1.72339
G1 X134.029 Y139.358 E1.75344
G1 X133.185 Y139.678 E1.78346
G1 X132.315 Y139.923 E1.81352
G1 X131.428 Y140.089 E1.84353
G1 X130.277 Y140.187 E1.88195
G1 X129.67 Y140.2 E1.90215
G1 X105.575 Y140.199 E2.70355
G1 X104.877 Y140.19 E2.72677
G1 X103.976 Y140.139 E2.75678
G1 X103.082 Y140.007 E2.78684
G1 X102.204 Y139.798 E2.81686
G1 X101.347 Y139.511 E2.84692
G1 X100.52 Y139.15 E2.87693
G1 X99.727 Y138.717 E2.90698
G1 X98.976 Y138.216 E2.93701
G1 X98.272 Y137.65 E2.96705
G1 X97.621 Y137.024 E2.99709
G1 X97.028 Y136.343 E3.02713
G1 X96.498 Y135.612 E3.05716
G1 X96.034 Y134.837 E3.0872
G1 X95.64 Y134.024 E3.11725
G1 X95.32 Y133.18 E3.14727
G1 X95.076 Y132.31 E3.17732
G1 X94.91 Y131.422 E3.20737
G1 X94.813 Y130.267 E3.24592
G1 X94.8 Y129.658 E3.26618
G1 X94.801 Y105.536 E4.06848
G1 X94.81 Y104.871 E4.0906
G1 X94.862 Y103.969 E4.12065
G1 X94.994 Y103.076 E4.15068
G1 X95.204 Y102.198 E4.1807
G1 X95.491 Y101.341 E4.21076
G1 X95.853 Y100.514 E4.24079
G1 X96.286 Y99.722 E4.27081
G1 X96.788 Y98.971 E4.30085
G1 X97.355 Y98.267 E4.33092
G1 X97.981 Y97.617 E4.36093
G1 X98.662 Y97.024 E4.39097
G1 X99.394 Y96.494 E4.42103
G1 X100.169 Y96.031 E4.45105
G1 X100.982 Y95.638 E4.48109
G1 X101.827 Y95.318 E4.51114
G1 X102.696 Y95.075 E4.54115
G1 X103.584 Y94.909 E4.5712
G1 X104.723 Y94.813 E4.60922
G1 X105.33 Y94.8 E4.62941
G1 X129.439 Y94.801 E5.43128
G1 X130.137 Y94.811 E5.4545
G0 F6000 X130.143 Y94.411
G1 F1200 X131.062 Y94.464 E5.48511
G1 X131.973 Y94.597 E5.51573
G1 X132.869 Y94.808 E5.54635
G1 X133.743 Y95.096 E5.57696
G1 X134.59 Y95.459 E5.60761
G1 X135.401 Y95.894 E5.63822
G1 X136.171 Y96.398 E5.66882
G1 X136.895 Y96.967 E5.69945
G1 X137.567 Y97.597 E5.73009
G1 X138.182 Y98.282 E5.76071
G1 X138.735 Y99.018 E5.79133
G1 X139.222 Y99.799 E5.82194
G1 X139.639 Y100.62 E5.85257
G1 X139.984 Y101.474 E5.8832
G1 X140.253 Y102.354 E5.91381
G1 X140.445 Y103.255 E5.94445
G1 X140.558 Y104.168 E5.97504
G1 X140.587 Y104.712 E5.99316
G1 X140.6 Y105.33 E6.01372
G1 X140.599 Y129.395 E6.81413
G1 X140.59 Y130.122 E6.83831
G1 X140.539 Y131.041 E6.86892
G1 X140.408 Y131.953 E6.89957
G1 X140.198 Y132.849 E6.93018
G1 X139.912 Y133.724 E6.96079
G1 X139.551 Y134.571 E6.99142
G1 X139.117 Y135.383 E7.02204
G1 X138.615 Y136.155 E7.05267
G1 X138.047 Y136.88 E7.0833
G1 X137.419 Y137.553 E7.11392
G1 X136.735 Y138.169 E7.14453
G1 X136 Y138.723 E7.17515
G1 X135.22 Y139.212 E7.20577
G1 X134.4 Y139.631 E7.23639
G1 X133.547 Y139.977 E7.26701
G1 X132.667 Y140.248 E7.29763
G1 X131.767 Y140.441 E7.32825
G1 X130.853 Y140.556 E7.35889
G1 X130.288 Y140.587 E7.37771
G1 X129.67 Y140.6 E7.39827
G1 X105.57 Y140.599 E8.19984
G1 X104.872 Y140.59 E8.22305
G1 X103.953 Y140.538 E8.25367
G1 X103.042 Y140.407 E8.28428
G1 X102.146 Y140.197 E8.31489
G1 X101.271 Y139.91 E8.34552
G1 X100.424 Y139.548 E8.37615
G1 X99.612 Y139.114 E8.40678
G1 X98.841 Y138.612 E8.43738
G1 X98.116 Y138.044 E8.46801
G1 X97.443 Y137.415 E8.49865
G1 X96.828 Y136.731 E8.52924
G1 X96.274 Y135.996 E8.55985
G1 X95.786 Y135.215 E8.59048
G1 X95.367 Y134.395 E8.62111
G1 X95.021 Y133.542 E8.65173
G1 X94.751 Y132.662 E8.68234
G1 X94.558 Y131.761 E8.71299
G1 X94.444 Y130.848 E8.74359
G1 X94.413 Y130.277 E8.76261
G1 X94.4 Y129.658 E8.78321
G1 X94.401 Y105.531 E9.58567
G1 X94.41 Y104.866 E9.60779
G1 X94.462 Y103.946 E9.63844
G1 X94.594 Y103.035 E9.66906
G1 X94.805 Y102.139 E9.69967
G1 X95.092 Y101.264 E9.7303
G1 X95.455 Y100.418 E9.76092
G1 X95.889 Y99.606 E9.79154
G1 X96.392 Y98.835 E9.82216
G1 X96.961 Y98.111 E9.85279
G1 X97.589 Y97.439 E9.88338
G1 X98.274 Y96.823 E9.91402
G1 X99.01 Y96.27 E9.94464
G1 X99.791 Y95.782 E9.97527
G1 X100.611 Y95.364 E10.00588
G1 X101.465 Y95.019 E10.03652
G1 X102.345 Y94.749 E10.06713
G1 X103.245 Y94.557 E10.09774
G1 X104.159 Y94.443 E10.12838
G1 X104.712 Y94.413 E10.1468
G1 X105.33 Y94.4 E10.16735
G1 X129.445 Y94.401 E10.96942
G1 X130.143 Y94.411 E10.99264
G0 F6000 X130.149 Y94.011
G1 F1200 X131.085 Y94.065 E11.02382
G1 X132.013 Y94.197 E11.055
G1 X132.927 Y94.409 E11.08621
G1 X133.819 Y94.698 E11.11739
G1 X134.684 Y95.061 E11.14859
G1 X135.514 Y95.497 E11.17978
G1 X136.305 Y96.002 E11.21099
G1 X137.049 Y96.573 E11.24218
G1 X137.742 Y97.205 E11.27338
G1 X138.379 Y97.893 E11.30456
G1 X138.954 Y98.634 E11.33576
G1 X139.465 Y99.42 E11.36694
G1 X139.907 Y100.248 E11.39816
G1 X140.276 Y101.11 E11.42935
G1 X140.571 Y102 E11.46053
G1 X140.789 Y102.912 E11.49172
G1 X140.929 Y103.84 E11.52293
G1 X140.987 Y104.701 E11.55163
G1 X141 Y105.33 E11.57256
G1 X140.999 Y129.4 E12.37313
G1 X140.99 Y130.127 E12.39731
G1 X140.939 Y131.064 E12.42852
G1 X140.807 Y131.992 E12.4597
G1 X140.598 Y132.906 E12.49088
G1 X140.311 Y133.799 E12.52208
G1 X139.949 Y134.665 E12.5533
G1 X139.515 Y135.496 E12.58448
G1 X139.011 Y136.287 E12.61568
G1 X138.442 Y137.032 E12.64686
G1 X137.811 Y137.727 E12.67808
G1 X137.124 Y138.365 E12.70926
G1 X136.385 Y138.942 E12.74045
G1 X135.599 Y139.454 E12.77165
G1 X134.773 Y139.897 E12.80282
G1 X133.911 Y140.269 E12.83405
G1 X133.022 Y140.565 E12.86521
G1 X132.11 Y140.785 E12.89641
G1 X131.183 Y140.926 E12.9276
G1 X130.299 Y140.987 E12.95707
G1 X129.67 Y141 E12.978
G1 X105.565 Y140.999 E13.77973
G1 X104.867 Y140.99 E13.80295
G1 X103.931 Y140.938 E13.83413
G1 X103.002 Y140.806 E13.86534
G1 X102.088 Y140.596 E13.89653
G1 X101.195 Y140.309 E13.92773
G1 X100.33 Y139.946 E13.95893
G1 X99.499 Y139.512 E13.99011
G1 X98.708 Y139.008 E14.02131
G1 X97.963 Y138.438 E14.05251
G1 X97.269 Y137.807 E14.0837
G1 X96.632 Y137.12 E14.11486
G1 X96.055 Y136.38 E14.14607
G1 X95.543 Y135.594 E14.17727
G1 X95.1 Y134.767 E14.20848
G1 X94.729 Y133.906 E14.23966
G1 X94.433 Y133.016 E14.27086
G1 X94.214 Y132.104 E14.30205
G1 X94.073 Y131.177 E14.33324
G1 X94.013 Y130.288 E14.36287
G1 X94 Y129.658 E14.38383
G1 X94.001 Y105.525 E15.1865
G1 X94.01 Y104.86 E15.20862
G1 X94.063 Y103.924 E15.2398
G1 X94.195 Y102.995 E15.27101
G1 X94.406 Y102.081 E15.30221
G1 X94.694 Y101.189 E15.33338
G1 X95.057 Y100.324 E15.36458
G1 X95.492 Y99.493 E15.39578
G1 X95.996 Y98.703 E15.42695
G1 X96.566 Y97.958 E15.45815
G1 X97.198 Y97.264 E15.48937
G1 X97.886 Y96.627 E15.52055
G1 X98.626 Y96.051 E15.55174
G1 X99.412 Y95.539 E15.58294
G1 X100.239 Y95.097 E15.61413
G1 X101.101 Y94.727 E15.64533
G1 X101.991 Y94.431 E15.67653
G1 X102.903 Y94.213 E15.70771
G1 X103.83 Y94.072 E15.7389
G1 X104.701 Y94.013 E15.76794
G1 X105.33 Y94 E15.78886
G1 X129.451 Y94.001 E16.59113
G1 X130.149 Y94.011 E16.61435
G1 F1500 E10.11435
;MESH:SLD_Calibration_Cubes.STL
G0 F6000 X129.68 Y104.335
G0 X129.68 Y105.32
G0 X129.618 Y129.618
G0 X105.34 Y129.66
G0 X105.2 Y129.8
;TYPE:WALL-OUTER
G1 F1500 E16.61435
G1 F1200 X105.2 Y105.2 E17.43255
G1 X129.8 Y105.2 E18.25075
G1 X129.8 Y129.8 E19.06895
G1 X105.2 Y129.8 E19.88714
G0 F6000 X105.59 Y129.41
;TYPE:SKIN
G1 F1200 X105.59 Y105.59 E20.6794
G1 X129.41 Y105.59 E21.47166
G1 X129.41 Y129.41 E22.26391
G1 X105.59 Y129.41 E23.05617
G0 F6000 X106.056 Y129.249
G1 F1200 X105.749 Y128.943 E23.07059
G0 F6000 X105.749 Y128.377
G1 F1200 X106.622 Y129.249 E23.11163
G0 F6000 X107.188 Y129.249
G1 F1200 X105.749 Y127.811 E23.17929
G0 F6000 X105.749 Y127.245
G1 F1200 X107.753 Y129.249 E23.27355
G0 F6000 X108.319 Y129.249
G1 F1200 X105.749 Y126.68 E23.39441
G0 F6000 X105.749 Y126.114
G1 F1200 X108.885 Y129.249 E23.5419
G0 F6000 X109.45 Y129.249
G1 F1200 X105.749 Y125.548 E23.71598
G0 F6000 X105.749 Y124.983
G1 F1200 X110.016 Y129.249 E23.91666
G0 F6000 X110.582 Y129.249
G1 F1200 X105.749 Y124.417 E24.14397
G0 F6000 X105.749 Y123.851
G1 F1200 X111.147 Y129.249 E24.39788
G0 F6000 X111.713 Y129.249
G1 F1200 X105.749 Y123.286 E24.67838
G0 F6000 X105.749 Y122.72
G1 F1200 X112.279 Y129.249 E24.98551
G0 F6000 X112.845 Y129.249
G1 F1200 X105.749 Y122.154 E25.31926
G0 F6000 X105.749 Y121.589
G1 F1200 X113.41 Y129.249 E25.67958
G0 F6000 X113.976 Y129.249
G1 F1200 X105.749 Y121.023 E26.06653
G0 F6000 X105.749 Y120.457
G1 F1200 X114.542 Y129.249 E26.48011
G0 F6000 X115.107 Y129.249
G1 F1200 X105.749 Y119.892 E26.92025
G0 F6000 X105.749 Y119.326
G1 F1200 X115.673 Y129.249 E27.38703
G0 F6000 X116.239 Y129.249
G1 F1200 X105.749 Y118.76 E27.88042
G0 F6000 X105.749 Y118.195
G1 F1200 X116.804 Y129.249 E28.40039
G0 F6000 X117.37 Y129.249
G1 F1200 X105.749 Y117.629 E28.94698
G0 F6000 X105.749 Y117.063
G1 F1200 X117.936 Y129.249 E29.5202
G0 F6000 X118.501 Y129.249
G1 F1200 X105.749 Y116.497 E30.12001
G0 F6000 X105.749 Y115.932
G1 F1200 X119.067 Y129.249 E30.74643
G0 F6000 X119.633 Y129.249
G1 F1200 X105.749 Y115.366 E31.39946
G0 F6000 X105.749 Y114.8
G1 F1200 X120.198 Y129.249 E32.0791
G0 F6000 X120.764 Y129.249
G1 F1200 X105.749 Y114.235 E32.78534
G0 F6000 X105.749 Y113.669
G1 F1200 X121.33 Y129.249 E33.5182
G0 F6000 X121.896 Y129.249
G1 F1200 X105.749 Y113.103 E34.27768
G0 F6000 X105.749 Y112.538
G1 F1200 X122.461 Y129.249 E35.06374
G0 F6000 X123.027 Y129.249
G1 F1200 X105.749 Y111.972 E35.87642
G0 F6000 X105.749 Y111.406
G1 F1200 X123.593 Y129.249 E36.71572
G0 F6000 X124.158 Y129.249
G1 F1200 X105.749 Y110.841 E37.5816
G0 F6000 X105.749 Y110.275
G1 F1200 X124.724 Y129.249 E38.4741
G0 F6000 X125.29 Y129.249
G1 F1200 X105.749 Y109.709 E39.39323
G0 F6000 X105.749 Y109.144
G1 F1200 X125.855 Y129.249 E40.33893
G0 F6000 X126.421 Y129.249
G1 F1200 X105.749 Y108.578 E41.31125
G0 F6000 X105.749 Y108.012
G1 F1200 X126.987 Y129.249 E42.3102
G0 F6000 X127.552 Y129.249
G1 F1200 X105.749 Y107.446 E43.33574
G0 F6000 X105.749 Y106.881
G1 F1200 X128.118 Y129.249 E44.38789
G0 F6000 X128.684 Y129.249
G1 F1200 X105.749 Y106.315 E45.46666
G0 F6000 X105.749 Y105.749
G1 F1200 X129.249 Y129.249 E46.57203
G0 F6000 X129.249 Y128.684
G1 F1200 X106.315 Y105.749 E47.6508
G0 F6000 X106.881 Y105.749
G1 F1200 X129.249 Y128.118 E48.70294
G0 F6000 X129.249 Y127.552
G1 F1200 X107.446 Y105.749 E49.72849
G0 F6000 X108.012 Y105.749
G1 F1200 X129.249 Y126.987 E50.72743
G0 F6000 X129.249 Y126.421
G1 F1200 X108.578 Y105.749 E51.69976
G0 F6000 X109.144 Y105.749
G1 F1200 X129.249 Y125.855 E52.64546
G0 F6000 X129.249 Y125.29
G1 F1200 X109.709 Y105.749 E53.56458
G0 F6000 X110.275 Y105.749
G1 F1200 X129.249 Y124.724 E54.45709
G0 F6000 X129.249 Y124.158
G1 F1200 X110.841 Y105.749 E55.32297
G0 F6000 X111.406 Y105.749
G1 F1200 X129.249 Y123.593 E56.16227
G0 F6000 X129.249 Y123.027
G1 F1200 X111.972 Y105.749 E56.97495
G0 F6000 X112.538 Y105.749
G1 F1200 X129.249 Y122.461 E57.76101
G0 F6000 X129.249 Y121.896
G1 F1200 X113.103 Y105.749 E58.52049
G0 F6000 X113.669 Y105.749
G1 F1200 X129.249 Y121.33 E59.25335
G0 F6000 X129.249 Y120.764
G1 F1200 X114.235 Y105.749 E59.95959
G0 F6000 X114.8 Y105.749
G1 F1200 X129.249 Y120.198 E60.63922
G0 F6000 X129.249 Y119.633
G1 F1200 X115.366 Y105.749 E61.29226
G0 F6000 X115.932 Y105.749
G1 F1200 X129.249 Y119.067 E61.91867
G0 F6000 X129.249 Y118.501
G1 F1200 X116.497 Y105.749 E62.51849
G0 F6000 X117.063 Y105.749
G1 F1200 X129.249 Y117.936 E63.0917
G0 F6000 X129.249 Y117.37
G1 F1200 X117.629 Y105.749 E63.6383
G0 F6000 X118.195 Y105.749
G1 F1200 X129.249 Y116.804 E64.15827
G0 F6000 X129.249 Y116.239
G1 F1200 X118.76 Y105.749 E64.65166
G0 F6000 X119.326 Y105.749
G1 F1200 X129.249 Y115.673 E65.11843
G0 F6000 X129.249 Y115.107
G1 F1200 X119.892 Y105.749 E65.55858
G0 F6000 X120.457 Y105.749
G1 F1200 X129.249 Y114.542 E65.97215
G0 F6000 X129.249 Y113.976
G1 F1200 X121.023 Y105.749 E66.3591
G0 F6000 X121.589 Y105.749
G1 F1200 X129.249 Y113.41 E66.71943
G0 F6000 X129.249 Y112.845
G1 F1200 X122.154 Y105.749 E67.05318
G0 F6000 X122.72 Y105.749
G1 F1200 X129.249 Y112.279 E67.36031
G0 F6000 X129.249 Y111.713
G1 F1200 X123.286 Y105.749 E67.64081
G0 F6000 X123.851 Y105.749
G1 F1200 X129.249 Y111.147 E67.89472
G0 F6000 X129.249 Y110.582
G1 F1200 X124.417 Y105.749 E68.12202
G0 F6000 X124.983 Y105.749
G1 F1200 X129.249 Y110.016 E68.3227
G0 F6000 X129.249 Y109.45
G1 F1200 X125.548 Y105.749 E68.49679
G0 F6000 X126.114 Y105.749
G1 F1200 X129.249 Y108.885 E68.64427
G0 F6000 X129.249 Y108.319
G1 F1200 X126.68 Y105.749 E68.76513
G0 F6000 X127.245 Y105.749
G1 F1200 X129.249 Y107.753 E68.8594
G0 F6000 X129.249 Y107.188
G1 F1200 X127.811 Y105.749 E68.92706
G0 F6000 X128.377 Y105.749
G1 F1200 X129.249 Y106.622 E68.9681
G0 F6000 X129.249 Y106.056
G1 F1200 X128.943 Y105.749 E68.98252
G1 F1500 E62.48252
;MESH:NONMESH
G0 F300 X128.943 Y105.749 Z0.4
G0 F6000 X128.943 Y105.31
G0 X105.382 Y105.382
G0 X105.37 Y129.63
G0 X105.2 Y129.8
;TIME_ELAPSED:117.018142
CURALAYERCUT
;LAYER:1
M140 S60
M106 S85
;TYPE:WALL-OUTER
;MESH:SLD_Calibration_Cubes.STL
G1 F1500 E68.98252
G1 F1350 X105.2 Y105.2 E69.80071
G1 X129.8 Y105.2 E70.61891
G1 X129.8 Y129.8 E71.43711
G1 X105.2 Y129.8 E72.25531
G0 F7500 X105.59 Y129.41
;TYPE:SKIN
G1 F1350 X105.59 Y105.59 E73.04757
G1 X129.41 Y105.59 E73.83983
G1 X129.41 Y129.41 E74.63208
G1 X105.59 Y129.41 E75.42434
G0 F7500 X105.31 Y129.41
G0 X105.31 Y105.816
G0 X105.749 Y105.816
G1 F1350 X105.816 Y105.749 E75.42749
G0 F7500 X106.382 Y105.749
G1 F1350 X105.749 Y106.382 E75.45726
G0 F7500 X105.749 Y106.947
G1 F1350 X106.947 Y105.749 E75.51361
G0 F7500 X107.513 Y105.749
G1 F1350 X105.749 Y107.513 E75.59659
G0 F7500 X105.749 Y108.079
G1 F1350 X108.079 Y105.749 E75.70618
G0 F7500 X108.644 Y105.749
G1 F1350 X105.749 Y108.644 E75.84236
G0 F7500 X105.749 Y109.21
G1 F1350 X109.21 Y105.749 E76.00515
G0 F7500 X109.776 Y105.749
G1 F1350 X105.749 Y109.776 E76.19457
G0 F7500 X105.749 Y110.341
G1 F1350 X110.341 Y105.749 E76.41056
G0 F7500 X110.907 Y105.749
G1 F1350 X105.749 Y110.907 E76.65318
G0 F7500 X105.749 Y111.473
G1 F1350 X111.473 Y105.749 E76.92242
G0 F7500 X112.038 Y105.749
G1 F1350 X105.749 Y112.038 E77.21823
G0 F7500 X105.749 Y112.604
G1 F1350 X112.604 Y105.749 E77.54067
G0 F7500 X113.17 Y105.749
G1 F1350 X105.749 Y113.17 E77.88973
G0 F7500 X105.749 Y113.736
G1 F1350 X113.736 Y105.749 E78.26542
G0 F7500 X114.301 Y105.749
G1 F1350 X105.749 Y114.301 E78.66768
G0 F7500 X105.749 Y114.867
G1 F1350 X114.867 Y105.749 E79.09656
G0 F7500 X115.433 Y105.749
G1 F1350 X105.749 Y115.433 E79.55206
G0 F7500 X105.749 Y115.998
G1 F1350 X115.998 Y105.749 E80.03415
G0 F7500 X116.564 Y105.749
G1 F1350 X105.749 Y116.564 E80.54285
G0 F7500 X105.749 Y117.13
G1 F1350 X117.13 Y105.749 E81.07818
G0 F7500 X117.695 Y105.749
G1 F1350 X105.749 Y117.695 E81.64008
G0 F7500 X105.749 Y118.261
